teeny/solid/list-layout.svg

<svg width="15" height="15" viewBox="0 0 15 15" fill="none" xmlns="http://www.w3.org/2000/svg">
<path d="M1.5 1C0.671573 1 0 1.67157 0 2.5V4.5C0 5.32843 0.671573 6 1.5 6H3.5C4.32843 6 5 5.32843 5 4.5V2.5C5 1.67157 4.32843 1 3.5 1H1.5Z" fill="black"/>
<path d="M7 4H15V3H7V4Z" fill="black"/>
<path d="M1.5 9C0.671573 9 0 9.67157 0 10.5V12.5C0 13.3284 0.671573 14 1.5 14H3.5C4.32843 14 5 13.3284 5 12.5V10.5C5 9.67157 4.32843 9 3.5 9H1.5Z" fill="black"/>
<path d="M7 12H15V11H7V12Z" fill="black"/>
</svg>

<svg viewBox="0 0 15 15" xmlns="http://www.w3.org/2000/svg"><g><path d="M1.5 1C.67 1 0 1.67 0 2.5v2C0 5.32.67 6 1.5 6h2C4.32 6 5 5.32 5 4.5v-2C5 1.67 4.32 1 3.5 1h-2Z"/><path d="M7 4h8V3H7v1Z"/><path d="M1.5 9C.67 9 0 9.67 0 10.5v2c0 .82.67 1.5 1.5 1.5h2c.82 0 1.5-.68 1.5-1.5v-2C5 9.67 4.32 9 3.5 9h-2Z"/><path d="M7 12h8v-1H7v1Z"/></g></svg>
